src/assets/outline/Bitcoin.svg

<svg width="24" height="24" viewBox="0 0 24 24"  xmlns="http://www.w3.org/2000/svg">
<path d="M12 22.75C6.07 22.75 1.25 17.93 1.25 12C1.25 6.07 6.07 1.25 12 1.25C17.93 1.25 22.75 6.07 22.75 12C22.75 17.93 17.93 22.75 12 22.75ZM12 2.75C6.9 2.75 2.75 6.9 2.75 12C2.75 17.1 6.9 21.25 12 21.25C17.1 21.25 21.25 17.1 21.25 12C21.25 6.9 17.1 2.75 12 2.75Z" />
<path d="M14.1998 12.7499H8.77979C8.36979 12.7499 8.02979 12.4099 8.02979 11.9999V7.66992C8.02979 7.25992 8.36979 6.91992 8.77979 6.91992H14.1998C15.7498 6.91992 17.1198 8.27992 17.1198 9.83992C17.1198 11.4399 15.8098 12.7499 14.1998 12.7499ZM9.52979 11.2499H14.1998C14.9798 11.2499 15.6198 10.6099 15.6198 9.82992C15.6198 9.16992 14.9998 8.40992 14.1998 8.40992H9.52979V11.2499Z" />
<path d="M14.9698 17.08H8.77979C8.36979 17.08 8.02979 16.74 8.02979 16.33V12C8.02979 11.59 8.36979 11.25 8.77979 11.25H14.9698C16.7498 11.25 18.1998 12.56 18.1998 14.17C18.1998 15.78 16.7498 17.08 14.9698 17.08ZM9.52979 15.58H14.9698C15.9198 15.58 16.6998 14.94 16.6998 14.16C16.6998 13.38 15.9298 12.74 14.9698 12.74H9.52979V15.58Z" />
<path d="M12.5698 19.2501C12.1598 19.2501 11.8198 18.9101 11.8198 18.5001V16.3301C11.8198 15.9201 12.1598 15.5801 12.5698 15.5801C12.9798 15.5801 13.3198 15.9201 13.3198 16.3301V18.5001C13.3198 18.9101 12.9898 19.2501 12.5698 19.2501Z" />
<path d="M9.87012 19.2501C9.46012 19.2501 9.12012 18.9101 9.12012 18.5001V16.3301C9.12012 15.9201 9.46012 15.5801 9.87012 15.5801C10.2801 15.5801 10.6201 15.9201 10.6201 16.3301V18.5001C10.6201 18.9101 10.2801 19.2501 9.87012 19.2501Z" />
<path d="M12.5698 8.42C12.1598 8.42 11.8198 8.08 11.8198 7.67V5.5C11.8198 5.09 12.1598 4.75 12.5698 4.75C12.9798 4.75 13.3198 5.09 13.3198 5.5V7.67C13.3198 8.08 12.9898 8.42 12.5698 8.42Z" />
<path d="M9.87012 8.42C9.46012 8.42 9.12012 8.08 9.12012 7.67V5.5C9.12012 5.09 9.46012 4.75 9.87012 4.75C10.2801 4.75 10.6201 5.09 10.6201 5.5V7.67C10.6201 8.08 10.2801 8.42 9.87012 8.42Z" />
<path d="M10.8398 8.41992H7.0498C6.6398 8.41992 6.2998 8.07992 6.2998 7.66992C6.2998 7.25992 6.6398 6.91992 7.0498 6.91992H10.8398C11.2498 6.91992 11.5898 7.25992 11.5898 7.66992C11.5898 8.07992 11.2598 8.41992 10.8398 8.41992Z" />
<path d="M10.8398 17.0801H7.0498C6.6398 17.0801 6.2998 16.7401 6.2998 16.3301C6.2998 15.9201 6.6398 15.5801 7.0498 15.5801H10.8398C11.2498 15.5801 11.5898 15.9201 11.5898 16.3301C11.5898 16.7401 11.2598 17.0801 10.8398 17.0801Z" />
</svg>

<?xml version="1.0" encoding="UTF-8"?>
<svg width="24" height="24" viewBox="0 0 24 24" xmlns="http://www.w3.org/2000/svg">
 <path d="m12 22.75c-5.93 0-10.75-4.82-10.75-10.75s4.82-10.75 10.75-10.75 10.75 4.82 10.75 10.75-4.82 10.75-10.75 10.75zm0-20c-5.1 0-9.25 4.15-9.25 9.25s4.15 9.25 9.25 9.25 9.25-4.15 9.25-9.25-4.15-9.25-9.25-9.25z"/>
 <path d="m14.2 12.75h-5.42c-0.41 0-0.75-0.34-0.75-0.75v-4.33c0-0.41 0.34-0.75 0.75-0.75h5.42c1.55 0 2.92 1.36 2.92 2.92 0 1.6-1.31 2.91-2.92 2.91zm-4.67-1.5h4.67c0.78 0 1.42-0.64 1.42-1.42 0-0.66-0.62-1.42-1.42-1.42h-4.67v2.84z"/>
 <path d="m14.97 17.08h-6.19c-0.41 0-0.75-0.34-0.75-0.75v-4.33c0-0.41 0.34-0.75 0.75-0.75h6.19c1.78 0 3.23 1.31 3.23 2.92s-1.45 2.91-3.23 2.91zm-5.44-1.5h5.44c0.95 0 1.73-0.64 1.73-1.42s-0.77-1.42-1.73-1.42h-5.44v2.84z"/>
 <path d="m12.57 19.25c-0.41 0-0.75-0.34-0.75-0.75v-2.17c0-0.41 0.34-0.75 0.75-0.75s0.75 0.34 0.75 0.75v2.17c0 0.41-0.33 0.75-0.75 0.75z"/>
 <path d="m9.8701 19.25c-0.41 0-0.75-0.34-0.75-0.75v-2.17c0-0.41 0.34-0.75 0.75-0.75 0.40998 0 0.74998 0.34 0.74998 0.75v2.17c0 0.41-0.34 0.75-0.74998 0.75z"/>
 <path d="m12.57 8.42c-0.41 0-0.75-0.34-0.75-0.75v-2.17c0-0.41 0.34-0.75 0.75-0.75s0.75 0.34 0.75 0.75v2.17c0 0.41-0.33 0.75-0.75 0.75z"/>
 <path d="m9.8701 8.42c-0.41 0-0.75-0.34-0.75-0.75v-2.17c0-0.41 0.34-0.75 0.75-0.75 0.40998 0 0.74998 0.34 0.74998 0.75v2.17c0 0.41-0.34 0.75-0.74998 0.75z"/>
 <path d="m10.84 8.4199h-3.79c-0.41 0-0.75-0.34-0.75-0.75s0.34-0.75 0.75-0.75h3.79c0.41 0 0.75 0.34 0.75 0.75s-0.33 0.75-0.75 0.75z"/>
 <path d="m10.84 17.08h-3.79c-0.41 0-0.75-0.34-0.75-0.75s0.34-0.75 0.75-0.75h3.79c0.41 0 0.75 0.34 0.75 0.75s-0.33 0.75-0.75 0.75z"/>
</svg>
